X: 2
P: Odessa Bulgar #3
C: from John Chambers
R: Bulgar, Frailach
N: from handwritten MS
M: 2/4
L: 1/8
K: F
|: zABA |"Dm"d2 A2 |"Dm"f2 A2 | "Dm"d4 |"Dm"zdef | "Gm"gf ed |"Gm"ed^cB | "A"A4-|"A"A4 |
"A"A^c cc |"A"c2 BA | "Dm"Ad dd|"Dm" d4 | "Gm"eg fe |"A7"fe d^c | "Dm"d4 :|
|: z2 "C7"c2|"F"fa aa|"F" a2 gf|"F"fa aa|"F" a2 gf|"F"a2 b2|"F" ag ba|"C"g4- |"C"g4|
"C"eg gg|"C" g2 fe|"C"eg gg|"C" g2 fe|"C"g2 a2|"C" gf ag|"F"f4 :|
|: z"A7"f e^c|"Dm"d4|"Dm" zgfe |"Dm"f2 ef-|"Dm"fe f/e/d | d4 |"D7"zbag | "Gm"g4-|g2 "C7"c2 |
 "F"f3 a |"F"c'b ag | "A7"fg ef| "Dm"de fg | "Dm"af "A7"ge| "Dm"fd "A7"e^c | "Dm"d4 :|

